X:22
T:Scottish Urbaine
I:last changed 14/2/2016
F:http://www.campin.me.uk/Music/Edinbal.abc
C:Gregory Jolivet
M:C
L:1/8
%Q:1/2=90
P:AABB
K:GMix
P:A
DGGF   G3  A |BGBc  d2 B/c/d|cBAG F3G|[1 AcAG F2D2:|\
                                      [2 AcAF G4  ||
P:B
B2 Gc- cG d2-|ded^c d2 B/c/d|cBAG F3G|[1 AcAG F2D2:|\
                                      [2 AcAF G4  |]

